X:1
T:Why runs away my love? - East
T:#
%%score { 1 | 2 } 3 4 { ( 5 6 7 ) | 8 }
L:1/8
Q:1/4=120
M:4/4
K:F
V:1 treble nm="Soprano I" snm="S"
V:2 treble 
V:3 treble nm="Alto" snm="A"
V:4 treble-8 nm="Tenor" snm="T"
V:5 treble nm="Practice"
V:6 treble 
V:7 treble 
V:8 bass 
V:1
 D4 GABc |"^Why runs away my love?" d6 B2 | A2 G4 ^F2 | G4 z2"^Michael East\n(c.1580-1648)" A2 | %4
w: Why runs a- way my|love, from|me dis- dain-|ing, why|
[M:4/4] cdef g4- | g2 f2 e3 e | d2 d2 z4 | z2 D2 GABc | d8 | z4 z2 f2- | f2 _e4 e2 | d2 G2 z2 A2 | %12
w: runs a- way my love,|* from me dis|dain- ing,|why runs a- way my|love,|from|* me dis-|dain- ing, why|
 Bcd_e d4 | z4 z2 f2 | f6 d2 | d2 B2 A4 | =B8 | z8 | z8 | z4 A4 | B6 B2 | A8 | G4 G2 c2- | %23
w: runs a- way my love,|a-|way, from|me dis- dain-|ing,|||and|too, too|cru-|el, and too,|
 c2 c2 =B4 | c8- | c8 | z8 | z4 f4- | f4 e4 | d4 c4 | B8 | A4 z4 | z8 | z4 g4- | g4 f4 | e6 d2 | %36
w: * too cru-|el,|||leaves|* me|here com-|plain-|ing,||leaves|* me|here com-|
 c4 G2 G2 | A8- | A8 | A8 | A4 z2 G2 | A3 c d2 d2 | (cBAG FGAB | c4) d4 | g8 | f8 ||[M:3/2] x12 | %47
w: plain- ing, com-|plain\-|||ing, yet,|O, ne'er think by|flight * * * * * * *|* me|to|re-||
[M:3/2][Q:1/4=180][Q:1/4=180] f8 z4 | d8 c2 B2 | A6 G6 | ^F12 | B4 A4 G4 | (^F3 E F2 G2 A4) | %53
w: move,|men are not|where they|live,|but where they|love, * * * *|
 G4 G4 ^F4 |[M:3/2] G8 z4 | G4 A4 B4 | A4 (d6 c2 | %57
w: but where they|love,|but where they|love, but *|
[Q:1/4=176][Q:1/4=176] B4)[Q:1/4=169][Q:1/4=169] A4[Q:1/4=163][Q:1/4=163] A4 | %58
w: * where they|
[Q:1/4=160][Q:1/4=160] !fermata!=B12 |] %59
w: love.|
V:2
 z4 z2 G2 | Bcde f2 d2 | c2 B2 A4 | G4 z4 |[M:4/4] z8 | z4 z2 E2 | FGAB c2 A2 | G2 ^F2 B2 G2 | %8
w: Why|runs a- way my love, from|me dis- dain-|ing,||why|runs a- way my love, from|me dis- dain- ing,|
 z2 D2 GABc | d4 c4 | d2 B2 (c4- | c2 B2 A4) | G4 z2 ^F2 | GABc d4- | d2 d2 c2 B2 | A2 GG d4 | %16
w: why runs a- way my|love, from|me dis- dain\-||ing, why|runs a- way my love,|* from me dis-|dain- ing, dis- dain-|
 d8- | d8 | z4 d4 | f6 f2 | e4 d2 G2 | c8- | c4 c4 | F8 | G4 A4- | A4 G4 | F8- | F8 | z4 A4 | %29
w: ing,||and|too, too|cru- el, and|too,|* too|cru-|el, leaves|* me|here||com-|
 (B4 A4 | G8 | ^F4 B4- | B4 A4 | G4 G4 | A3 G A2 B2 | c4) G4 | z4 g4- | g4 f4 | e4 d4- | %39
w: plain\- *||ing, leaves|* me|here com-|plain\- * * *|* ing,|leaves|* me|here com\-|
 d2 (^c=B c4) | d4 z2 d2 | f3 f f2 f2 | f8- | f4 f4 | _e6 (d2- | c2 B2 c4) ||[M:3/2] x12 | %47
w: * plain\- * *|ing, yet,|O, ne'er think by|flight|* me|to re\-|||
[M:3/2] d8 z4 | f8 f2 d2 | c6 B6 | A12 | G4 A4 B4 | A4 (d6 c2 | B4) A4 A4 |[M:3/2] =B8 z4 | %55
w: move,|men are not|where they|live,|but where they|love, but *|* where they|love,|
 B4 A4 G4 | (^F3 E F2 G2 A4) | G4 G4 ^F4 | !fermata!G12 |] %59
w: but where they|love, * * * *|but where they|love.|
V:3
 z8 | z8 | z4 z2 A,2 | B,CDE F4- |[M:4/4] F2 E2 E2 D2 | (^C2 D4 C2) | D4 z2 F2 | B2 A2 G4 | %8
w: ||Why|runs a- way my love,|* from me dis-|dain\- * *|ing, from|me dis- dain-|
 ^F4 z2 B,2 | DEFG A4- | A2 G4 A2 | ^F2 (G4 F2) | G4 z2 D2 | _EFGA B4- | B2 B2 A2 G2 | %15
w: ing, why|runs a- way my love,|* from me|dis- dain\- *|ing, why|runs a- way my love,|* from me dis-|
 (^F2 G4 F2) | G4 G4 | B6 B2 | G4 G2 G2 | C4 C4 | z8 | z4 C4 | _E6 E2 | D8 | C8 | z4 c4- | c4 B4 | %27
w: dain\- * *|ing, and|too, too|cru- el, too|cru- el,||and|too, too|cru-|el,|leaves|* me|
 A6 A2 | A8 | F4 F4 | D8 | D8 | z4 D4- | D4 ^C4 | D8 | z4 E4- | E4 D4 | ^C4 D4 | (E4 F2 ED | E8) | %40
w: here com-|plain-|ing, com-|plain-|ing,|leaves|* me|here,|leaves|* me|here com-|plain\- * * *||
 ^F4 z2 B2 | A3 A F2 F2 | (AGFG ABcB | A4) A4 | (G2 A2 B4- | B4) A4 ||[M:3/2] x12 |[M:3/2] B8 z4 | %48
w: ing, yet,|O, ne'er think by|flight * * * * * * *|* me|to * *|* re-||move,|
 B8 A2 B2 | F6 G6 | D12 | D4 D6 D2 | D4 A,4 D4 | D4 D6 D2 |[M:3/2] D8 z4 | D4 D6 D2 | D4 A,4 D4 | %57
w: men are not|where they|live,|but where they|love, they love,|but where they|love,|but where they|love, they love,|
 D4 D6 D2 | !fermata!D12 |] %59
w: but where they|love.|
V:4
 z8 | z8 | z4 D4 | GABc d4 |[M:4/4][K:treble-8] A2 c4 G2 | A8 | D4 z4 | z8 | z4 z2 G2 | Bcde f4 | %10
w: ||Why|runs a- way my love,|from me dis-|dain-|ing,||why|runs a- way my love,|
 d2 _e4 c2 | d8 | G4 z4 | z8 | z2 B2 F2 G2 | D8 | G8 | z4 G4 | B6 B2 | A8 | G8 | z8 | z8 | z8 | %24
w: from me dis-|dain-|ing,||from me dis-|dain-|ing,|and|too, too|cru-|el,||||
 z4 F4- | F4 E4 | D8 | d8- | d4 c4 | B4 F4 | G8 | D4 G4- | G4 F4 | !courtesy!=E6 E2 | D8 | A4 c4- | %36
w: leaves|* me|here,|leaves|* me|here com-|plain-|ing, leaves|* me|here com-|plain-|ing, leaves|
 c4 B4 | A8- | A4 A4 | A8 | D4 z2 G2 | d3 A B2 B2 | F8- | F4 D4 | _E8 | F8 ||[M:3/2] x12 | %47
w: * me|here|* com-|plain-|ing, yet,|O, ne'er think by|flight|* me|to|re-||
[M:3/2][K:treble-8] B8 z4 | z12 | z12 | z12 | G4 ^F4 G4 | (D3 C D2 E2 ^F4) | G4 D4 D4 | %54
w: move,||||but where they|love, * * * *|but where they|
[M:3/2][K:treble-8] G8 z4 | G4 ^F4 G4 | (D3 C D2 E2 ^F4) | G4 D4 D4 | !fermata!G12 |] %59
w: love,|but where they|love, * * * *|but where they|love.|
V:5
 D4 GABc | d6 B2 | A2 G4 ^F2 | G4 z2 A2 |[M:4/4] cdef g4- | g2 f2 e3 e | d2 d2 x4 | x2 D2 GABc | %8
 d8 | x4 z2 f2- | f2 _e4 e2 | [cd]2 G2 z2 A2 | Bcd_e d2- d2 | x4 z2 f2 | f6 d2 | d2 B2 A4 | =B8 | %17
 x8 | x8 | z4 A4 | B6 B2 | A8 | G4 G2 c2- | c2 c2 =B4 | c8- | c8 | x8 | x4 f4- | f4 e4 | d4 c4 | %30
 B8 | A4 x4 | x8 | x4 g4- | g4 f4 | e6 d2 | c4 G2 G2 | A8- | A8 | A8 | A4 z2 G2 | A3 c d2 d2 | %42
 cBAG FGAB | c4 d4 | g8 | f8 ||[M:3/2] x12 |[M:3/2] f8 z4 | d8 c2 B2 | A6 G6 | ^F12 | B4 A4 G4 | %52
 ^F3 E F2 G2 A4 | G4 G4 ^F4 |[M:3/2] G8 z4 | G4 A4 B4 | A4 d6 c2 | B4 [GA]4 A4 | =B12 |] %59
V:6
 x4 x2 G2 | Bcde f2 d2 | c2 B2 A4 | G4 x4 |[M:4/4] x8 | z4 z2 E2 | FGAB c2 A2 | G2 ^F2 B2 G2 | %8
 x2 D2 GABc | d4 c4 | d2 B2 c4- | c2 B2 A4 | G4 x2 ^F2 | GABc d4- | d2 d2 c2 B2 | A2 xx d4 | d8- | %17
 d8 | x4 d4 | f6 f2 | e4 d2 G2 | c8- | c4 c4 | F8 | G4 A4- | A4 G4 | F8- | F8 | x4 A4 | B4 A4 | %30
 G8 | ^F4 B4- | B4 A4 | G4 G4 | A3 G A2 B2 | c4 G4 | x4 g4- | g4 f4 | e4 d4- | d2 ^c=B c4 | %40
 d4 z2 d2 | f3 f f2 f2 | f8- | f4 f4 | _e6 d2- | c2 B2 c4 ||[M:3/2] x12 |[M:3/2] d8 z4 | f8 f2 d2 | %49
 c6 B6 | A12 | G4 A4 B4 | A4 d6 c2 | B4 [GA]4 A4 |[M:3/2] =B8 z4 | B4 A4 G4 | ^F3 E F2 G2 A4 | %57
 G4 G4 ^F4 | !fermata!G12 |] %59
V:7
 x8 | x8 | x6[I:staff +1] A,2 | B,CDE F4- |[M:4/4] F2 E2 E2 D2 | ^C2 D4 C2 | D4[I:staff -1] x2 F2 | %7
 B2 A2 G2 x2 | ^F2- F2 x2[I:staff +1] B,2 | DEFG A4- | A2[I:staff -1] G4 A2 | ^F2 G4 F2 | %12
 G4 x2 D2 | _EFGA B4- | B2 B2 A2 G2 | ^F2 G4 F2 | G4 G4 | B6 B2 | G4 G2 G2 |[I:staff +1] C4 C4 | %20
[I:staff -1] x8 | x4[I:staff +1] C4 | _E6 E2 | D8 | C8 |[I:staff -1] x4 c4- | c4 B4 | A6 A2 | A8 | %29
 F4 F4 | D8 | D8 | x4[I:staff +1] D4- | D4 ^C4 | D8 |[I:staff -1] x4 E4- | E4[I:staff +1] D4 | %37
 ^C4 D4 | E4 F2 ED | E8 |[I:staff -1] ^F4 z2 B2 | A3 A F2 F2 | AGFG ABcB | A4 A4 | G2 A2 B4- | %45
 B4 A4 ||[M:3/2] x12 |[M:3/2] B8 z4 | B8 A2 B2 | F6 G6 | D12 |[I:staff +1] D4 D6 D2 | D4 A,4 D4 | %53
[I:staff -1] D4 D6 D2 |[M:3/2] D8 z4 | D4 D6 D2 |[I:staff +1] D4 A,4 D4 | D4 D6 D2 | %58
[I:staff -1] D12 |] %59
V:8
 z8 | z8 | z4 D,4 | G,A,B,C D4 |[M:4/4] A,2 C4 G,2 | A,8 | D,4 z4 | z8 | z4 z2 G,2 | B,CDE F4 | %10
 D2 _E4 C2 | D8 | G,4 z4 | z8 | z2 B,2 F,2 G,2 | D,8 | G,8 | z4 G,4 | B,6 B,2 | A,8 | G,8 | x8 | %22
 x8 | x8 | z4 F,4- | F,4 E,4 | D,8 | D8- | D4 C4 | B,4 F,4 | G,8 | D,4 G,4- | G,4 F,4 | %33
 !courtesy!=E,6 E,2 | D,8 | A,4 C4- | C4 B,4 | A,8- | A,4 A,4 | A,8 | D,4 z2 G,2 | D3 A, B,2 B,2 | %42
 F,8- | F,4 D,4 | _E,8 | F,8 ||[M:3/2] x12 |[M:3/2] B,8 z4 | z12 | z12 | z12 | G,4 ^F,4 G,4 | %52
 D,3 C, D,2 E,2 ^F,4 | G,4 D,4 D,4 |[M:3/2] G,8 z4 | G,4 ^F,4 G,4 | D,3 C, D,2 E,2 ^F,4 | %57
 G,4 D,4 D,4 | !fermata!G,12 |] %59

